images/icon-time.svg

<svg height="14" viewBox="0 0 14 14" width="14" xmlns="http://www.w3.org/2000/svg"><g fill="#1bb24b" fill-rule="evenodd"><path d="m13.02 3.51022222c-.6216667-1.06511111-1.465-1.90844444-2.5301111-2.53011111-1.06533334-.62166667-2.22833334-.93244444-3.48977779-.93244444-1.26133333 0-2.42466667.31077777-3.48977778.93244444-1.06522222.62155556-1.90855555 1.46488889-2.53022222 2.53011111-.62177778 1.06522222-.93255555 2.22855556-.93255555 3.48977778 0 1.26133333.31088888 2.42444444.93244444 3.4897778.62166667 1.065 1.465 1.9084444 2.53022222 2.5301111s2.22844445.9324444 3.48977778.9324444 2.42466667-.3107777 3.4897778-.9324444c1.0651111-.6215556 1.9084444-1.465 2.5301111-2.5301111.6215555-1.06522224.9323333-2.22855558.9323333-3.4897778 0-1.26133333-.3107778-2.42466667-.9322222-3.48977778zm-1.7562222 5.96111111c-.4405556.75433337-1.038 1.35188887-1.79244447 1.79244447-.75433333.4405555-1.57811111.6606666-2.47133333.6606666-.89311111 0-1.71688889-.2201111-2.47133333-.6606666-.75433334-.4405556-1.35177778-1.0381111-1.79233334-1.79244447-.44066666-.75433333-.66088889-1.57811111-.66088889-2.47133333s.22033334-1.717.66088889-2.47133333c.44044445-.75433334 1.038-1.35188889 1.79233334-1.79244445.75433333-.44055555 1.57811111-.66077778 2.47133333-.66077778s1.717.22022223 2.47133333.66077778c.75444447.44055556 1.35188887 1.03811111 1.79244447 1.79244445.4405555.75433333.6606666 1.57811111.6606666 2.47133333s-.2201111 1.717-.6606666 2.47133333z"/><path d="m7.86911111 3.52377778h-.57944444c-.08466667 0-.15388889.02722222-.20833334.08144444-.05411111.05433334-.08133333.12366667-.08133333.20822222v3.18655556h-2.02777778c-.08455555 0-.15388889.02711111-.20822222.08133333-.05433333.05422223-.08144444.12366667-.08144444.20833334v.57933333c0 .08455556.02711111.15388889.08144444.20822222.05433333.05422222.12377778.08133334.20822222.08133334h2.897c.08444445 0 .15388889-.02711112.208-.08133334.05422222-.05433333.08155556-.12366666.08155556-.20822222v-4.05555556c0-.08444444-.02733334-.15377777-.08155556-.20822222-.05422222-.05422222-.12366666-.08144444-.20811111-.08144444z"/></g></svg>

<?xml version="1.0" encoding="UTF-8" standalone="no"?>
<svg width="14px" height="14px" viewBox="0 0 14 14" version="1.1" xmlns="http://www.w3.org/2000/svg" xmlns:xlink="http://www.w3.org/1999/xlink">
    <!-- Generator: Sketch 3.7.2 (28276) - http://www.bohemiancoding.com/sketch -->
    <title>icon-time</title>
    <desc>Created with Sketch.</desc>
    <defs></defs>
    <g id="Symbols" stroke="none" stroke-width="1" fill="none" fill-rule="evenodd">
        <g id="icon-time" fill="#1BB24B">
            <g id="Shape">
                <path d="M13.02,3.51022222 C12.3983333,2.44511111 11.555,1.60177778 10.4898889,0.980111111 C9.42455556,0.358444444 8.26155556,0.0476666667 7.00011111,0.0476666667 C5.73877778,0.0476666667 4.57544444,0.358444444 3.51033333,0.980111111 C2.44511111,1.60166667 1.60177778,2.445 0.980111111,3.51022222 C0.358333333,4.57544444 0.0475555556,5.73877778 0.0475555556,7 C0.0475555556,8.26133333 0.358444444,9.42444444 0.98,10.4897778 C1.60166667,11.5547778 2.445,12.3982222 3.51022222,13.0198889 C4.57544444,13.6415556 5.73866667,13.9523333 7,13.9523333 C8.26133333,13.9523333 9.42466667,13.6415556 10.4897778,13.0198889 C11.5548889,12.3983333 12.3982222,11.5548889 13.0198889,10.4897778 C13.6414444,9.42455556 13.9522222,8.26122222 13.9522222,7 C13.9522222,5.73866667 13.6414444,4.57533333 13.02,3.51022222 L13.02,3.51022222 Z M11.2637778,9.47133333 C10.8232222,10.2256667 10.2257778,10.8232222 9.47133333,11.2637778 C8.717,11.7043333 7.89322222,11.9244444 7,11.9244444 C6.10688889,11.9244444 5.28311111,11.7043333 4.52866667,11.2637778 C3.77433333,10.8232222 3.17688889,10.2256667 2.73633333,9.47133333 C2.29566667,8.717 2.07544444,7.89322222 2.07544444,7 C2.07544444,6.10677778 2.29577778,5.283 2.73633333,4.52866667 C3.17677778,3.77433333 3.77433333,3.17677778 4.52866667,2.73622222 C5.283,2.29566667 6.10677778,2.07544444 7,2.07544444 C7.89322222,2.07544444 8.717,2.29566667 9.47133333,2.73622222 C10.2257778,3.17677778 10.8232222,3.77433333 11.2637778,4.52866667 C11.7043333,5.283 11.9244444,6.10677778 11.9244444,7 C11.9244444,7.89322222 11.7043333,8.717 11.2637778,9.47133333 L11.2637778,9.47133333 Z"></path>
                <path d="M7.86911111,3.52377778 L7.28966667,3.52377778 C7.205,3.52377778 7.13577778,3.551 7.08133333,3.60522222 C7.02722222,3.65955556 7,3.72888889 7,3.81344444 L7,7 L4.97222222,7 C4.88766667,7 4.81833333,7.02711111 4.764,7.08133333 C4.70966667,7.13555556 4.68255556,7.205 4.68255556,7.28966667 L4.68255556,7.869 C4.68255556,7.95355556 4.70966667,8.02288889 4.764,8.07722222 C4.81833333,8.13144444 4.88777778,8.15855556 4.97222222,8.15855556 L7.86922222,8.15855556 C7.95366667,8.15855556 8.02311111,8.13144444 8.07722222,8.07722222 C8.13144444,8.02288889 8.15877778,7.95355556 8.15877778,7.869 L8.15877778,3.81344444 C8.15877778,3.729 8.13144444,3.65966667 8.07722222,3.60522222 C8.023,3.551 7.95355556,3.52377778 7.86911111,3.52377778 L7.86911111,3.52377778 Z"></path>
            </g>
        </g>
    </g>
</svg>
